icon/fa/face-kiss-wink-heart.svg

<svg xmlns="http://www.w3.org/2000/svg" viewBox="0 0 512 512"><!--! Font Awesome Free 6.1.2 by @fontawesome - https://fontawesome.com License - https://fontawesome.com/license/free (Icons: CC BY 4.0, Fonts: SIL OFL 1.1, Code: MIT License) Copyright 2022 Fonticons, Inc.--><path d="M461.8 334.6c-13.7-33.8-50.3-54.3-87.5-43.9-40.1 11.2-61.9 53.1-51.9 92.1l22.9 89.3c2 7.6 5.6 14.3 10.4 19.7-30.6 13-64.3 20.2-99.7 20.2C114.6 512 0 397.4 0 256S114.6 0 256 0s256 114.6 256 256c0 29.3-4.9 57.4-14 83.7-11.1-5.6-23.5-6.6-36.2-5.1zM296 332c0-6.9-3.1-13.2-7.3-18.3-4.3-5.2-10.2-10.6-16.8-13.4-13.2-7.4-30.5-12.3-47.9-12.3-3.6 0-6.8 2.5-7.7 5.1-1 4.4.6 8.1 3.8 9l.2 1c.2.1.5.3.9.6.8.4 2 1.2 3.4 2.1 2.8 1.8 6.6 4.5 10.2 7.6 3.8 3.1 7.2 5.7 9.7 10 1.6 2.7 3.5 6.4 3.5 8.6 0 2.2-1.9 5-3.5 8.6-2.5 3.4-5.9 6.9-9.7 10-3.6 3.1-7.4 5.8-10.2 7.6-1.4.9-2.6 1.7-3.4 2.1-.4.3-.7.5-.9.6l-.2.1c-2.5 1.4-4.1 4.1-4.1 7 0 2.9 1.6 5.6 4.1 6.1l.2 1 .3.2.6.4c.8.4 2 1.2 3.4 2.1 2.8 1.8 6.6 4.5 10.2 7.6 3.8 3.1 7.2 6.5 9.7 10 1.6 2.7 3.5 6.4 3.5 8.6 0 2.2-1.9 5-3.5 8.6-2.5 3.4-5.9 6.9-9.7 10-3.6 3.1-7.4 5.8-10.2 7.6-1.4.9-2.6 1.7-3.4 2.1-.4.3-.7.5-.9.6l-.2.1c-3.2 1.8-4.8 5.5-3.8 9 .9 3.5 4.1 5.1 7.7 5.1 17.4 0 34.7-4 47.9-11.4 6.6-3.7 12.5-8.2 16.8-13.4 4.2-5.1 7.3-11.4 7.3-19.2 0-6-3.1-12.3-7.3-17.4-4.3-5.2-10.2-10.6-16.8-13.4-2.7-1.6-5.6-3-8.7-5.2 3.1-.4 6-1.8 8.7-3.4 6.6-3.7 12.5-8.2 16.8-13.4 4.2-5.1 7.3-11.4 7.3-19.2v.9zm-119.6-92c17.6 0 32-14.3 32-32s-14.4-32-32-32c-17.7 0-32 14.3-32 32s14.3 32 32 32zm217.2-3.2c7.1-5.3 8.5-15.3 3.2-22.4-30.4-40.5-91.2-40.5-121.6 0-5.3 7.1-3.9 17.1 3.2 22.4 7.1 5.3 17.1 3.9 22.4-3.2 17.6-23.5 52.8-23.5 70.4 0 5.3 7.1 15.3 8.5 22.4 3.2zm45.8 136.5 20.1-5.7c22.2-6.2 45.1 7.6 51.1 30.8 5.9 23.3-7.3 47.2-29.5 53.4l-85 23.8c-8.6 2.4-17.5-2.7-19.8-11.4l-22.9-89.3c-5.9-23.3 7.3-47.2 29.5-53.4 22.3-6.2 45.1 7.6 50.2 30.8l6.3 21z"/></svg>

<svg xmlns="http://www.w3.org/2000/svg" viewBox="0 0 512 512" height="1em" width="1em">
<!--! Font Awesome Free 6.1.2 by @fontawesome - https://fontawesome.com License - https://fontawesome.com/license/free (Icons: CC BY 4.0, Fonts: SIL OFL 1.1, Code: MIT License) Copyright 2022 Fonticons, Inc.-->
  <path d="M461.8 334.6C448.1 300.8 411.5 280.3 374.3 290.7C334.2 301.9 312.4 343.8 322.4 382.8L345.3 472.1C347.3 479.7 350.9 486.4 355.7 491.8C325.1 504.8 291.4 512 256 512C114.6 512 0 397.4 0 256C0 114.6 114.6 0 256 0C397.4 0 512 114.6 512 256C512 285.3 507.1 313.4 498 339.7C486.9 334.1 474.5 333.1 461.8 334.6L461.8 334.6zM296 332C296 325.1 292.9 318.8 288.7 313.7C284.4 308.5 278.5 303.1 271.9 300.3C258.7 292.9 241.4 288 224 288C220.4 288 217.2 290.5 216.3 293.1C215.3 297.5 216.9 301.2 220.1 302.1L220.1 302.1L220.3 303.1C220.5 303.2 220.8 303.4 221.2 303.7C222 304.1 223.2 304.9 224.6 305.8C227.4 307.6 231.2 310.3 234.8 313.4C238.6 316.5 242 319.1 244.5 323.4C246.1 326.1 248 329.8 248 332C248 334.2 246.1 337 244.5 340.6C242 344 238.6 347.5 234.8 350.6C231.2 353.7 227.4 356.4 224.6 358.2C223.2 359.1 222 359.9 221.2 360.3C220.8 360.6 220.5 360.8 220.3 360.9L220.1 361L220.1 361C217.6 362.4 216 365.1 216 368C216 370.9 217.6 373.6 220.1 374.1L220.1 374.1L220.3 375.1L220.6 375.3L221.2 375.7C222 376.1 223.2 376.9 224.6 377.8C227.4 379.6 231.2 382.3 234.8 385.4C238.6 388.5 242 391.9 244.5 395.4C246.1 398.1 248 401.8 248 404C248 406.2 246.1 409 244.5 412.6C242 416 238.6 419.5 234.8 422.6C231.2 425.7 227.4 428.4 224.6 430.2C223.2 431.1 222 431.9 221.2 432.3C220.8 432.6 220.5 432.8 220.3 432.9L220.1 433L220.1 433C216.9 434.8 215.3 438.5 216.3 442C217.2 445.5 220.4 447.1 224 447.1C241.4 447.1 258.7 443.1 271.9 435.7C278.5 432 284.4 427.5 288.7 422.3C292.9 417.2 296 410.9 296 403.1C296 397.1 292.9 390.8 288.7 385.7C284.4 380.5 278.5 375.1 271.9 372.3C269.2 370.7 266.3 369.3 263.2 367.1C266.3 366.7 269.2 365.3 271.9 363.7C278.5 360 284.4 355.5 288.7 350.3C292.9 345.2 296 338.9 296 331.1V332zM176.4 240C194 240 208.4 225.7 208.4 208C208.4 190.3 194 176 176.4 176C158.7 176 144.4 190.3 144.4 208C144.4 225.7 158.7 240 176.4 240zM393.6 236.8C400.7 231.5 402.1 221.5 396.8 214.4C366.4 173.9 305.6 173.9 275.2 214.4C269.9 221.5 271.3 231.5 278.4 236.8C285.5 242.1 295.5 240.7 300.8 233.6C318.4 210.1 353.6 210.1 371.2 233.6C376.5 240.7 386.5 242.1 393.6 236.8zM439.4 373.3L459.5 367.6C481.7 361.4 504.6 375.2 510.6 398.4C516.5 421.7 503.3 445.6 481.1 451.8L396.1 475.6C387.5 478 378.6 472.9 376.3 464.2L353.4 374.9C347.5 351.6 360.7 327.7 382.9 321.5C405.2 315.3 428 329.1 433.1 352.3L439.4 373.3z"/>
</svg>
